assets/images/AWS/Database/RedShift/Database_AmazonRedShift_DW1DenseCompute.svg

<?xml version="1.0" encoding="UTF-8" standalone="no"?>
<!-- Generator: Adobe Illustrator 19.1.0, SVG Export Plug-In . SVG Version: 6.00 Build 0)  -->

<svg
   xmlns:dc="http://purl.org/dc/elements/1.1/"
   xmlns:cc="http://creativecommons.org/ns#"
   xmlns:rdf="http://www.w3.org/1999/02/22-rdf-syntax-ns#"
   xmlns:svg="http://www.w3.org/2000/svg"
   xmlns="http://www.w3.org/2000/svg"
   xmlns:sodipodi="http://sodipodi.sourceforge.net/DTD/sodipodi-0.dtd"
   xmlns:inkscape="http://www.inkscape.org/namespaces/inkscape"
   version="1.1"
   id="Layer_1"
   x="0px"
   y="0px"
   viewBox="0 0 100 100"
   style="enable-background:new 0 0 100 100;"
   xml:space="preserve"
   inkscape:version="0.91 r13725"
   sodipodi:docname="Database_AmazonRedShift_DW1DenseCompute.svg"><metadata
     id="metadata187"><rdf:RDF><cc:Work
         rdf:about=""><dc:format>image/svg+xml</dc:format><dc:type
           rdf:resource="http://purl.org/dc/dcmitype/StillImage" /></cc:Work></rdf:RDF></metadata><defs
     id="defs185" /><sodipodi:namedview
     pagecolor="#ffffff"
     bordercolor="#666666"
     borderopacity="1"
     objecttolerance="10"
     gridtolerance="10"
     guidetolerance="10"
     inkscape:pageopacity="0"
     inkscape:pageshadow="2"
     inkscape:window-width="1280"
     inkscape:window-height="985"
     id="namedview183"
     showgrid="false"
     inkscape:zoom="7.4579687"
     inkscape:cx="50.26817"
     inkscape:cy="50"
     inkscape:window-x="0"
     inkscape:window-y="0"
     inkscape:window-maximized="1"
     inkscape:current-layer="Layer_1" /><style
     type="text/css"
     id="style3">
	.st0{fill:#1A476F;}
	.st1{fill:#2D72B8;}
	.st2{fill:#FFFFFF;stroke:#19486F;stroke-miterlimit:10;}
	.st3{font-family:'HelveticaNeueLTStd-BdCn';}
	.st4{font-size:11px;}
	.st5{display:none;}
</style><g
     id="g3779"
     transform="matrix(1.8214936,0,0,1.8214936,-40.983605,-40.072859)"><g
       id="g6"><g
         id="g8"><g
           id="g10"><path
             class="st0"
             d="m 49.2,32.3 0,2.5 c -0.1,-0.1 -0.1,-0.2 -0.1,-0.3 l 0,-2.5 c 0.1,0.2 0.1,0.2 0.1,0.3"
             id="path12"
             inkscape:connector-curvature="0"
             style="fill:#1a476f" /></g><path
           class="st0"
           d="m 49.2,34.6 0,-2.5 c 0,0.1 0,0.2 0.1,0.3 l 0,2.5 c -0.1,-0.2 -0.1,-0.3 -0.1,-0.3 z"
           id="path14"
           inkscape:connector-curvature="0"
           style="fill:#1a476f" /><g
           id="g16"><polygon
             class="st0"
             points="55.9,34.8 50.6,34.8 50.4,32.2 56.1,32.1 "
             id="polygon18"
             style="fill:#1a476f" /></g><g
           id="g20"><path
             class="st0"
             d="m 59.4,32.5 0,2.5 c -0.3,0.4 -0.8,0.7 -1.4,0.7 l 0,-2.5 c 0.6,0 1.1,-0.3 1.4,-0.7"
             id="path22"
             inkscape:connector-curvature="0"
             style="fill:#1a476f" /></g><path
           class="st0"
           d="m 59.4,32.5 0,2.5 c -0.3,0.4 -0.8,0.7 -1.4,0.7 l 0,-2.5 c 0.6,0 1.1,-0.3 1.4,-0.7 z"
           id="path24"
           inkscape:connector-curvature="0"
           style="fill:#1a476f" /><g
           id="g26"><polygon
             class="st0"
             points="63.4,37.9 59.4,35 58.6,31.8 63.4,35.4 "
             id="polygon28"
             style="fill:#1a476f" /></g><g
           id="g30"><polygon
             class="st0"
             points="50.6,34.8 44.4,42.3 44.4,39.8 50.6,32.3 "
             id="polygon32"
             style="fill:#1a476f" /></g><g
           id="g34"><polygon
             class="st0"
             points="59.4,42.5 55.9,34.8 55.9,32.3 59.4,40.1 "
             id="polygon36"
             style="fill:#1a476f" /></g><g
           id="g38"><polygon
             class="st0"
             points="63.4,43.6 62.2,44 62.2,41.6 64.3,40.6 "
             id="polygon40"
             style="fill:#1a476f" /></g><g
           id="g42"><polygon
             class="st0"
             points="72.6,46 70.5,46 70.5,43.5 73.1,43.3 "
             id="polygon44"
             style="fill:#1a476f" /></g><g
           id="g46"><rect
             x="67.300003"
             y="43.5"
             class="st0"
             width="0.40000001"
             height="2.5"
             id="rect48"
             style="fill:#1a476f" /></g><g
           id="g50"><path
             class="st0"
             d="m 74.7,41.8 0,2.5 c 0,0.1 0,0.1 0,0.2 l 0,-2.5 c 0,0 0,-0.1 0,-0.2"
             id="path52"
             inkscape:connector-curvature="0"
             style="fill:#1a476f" /><path
             class="st0"
             d="m 74.7,42 0,2.5 c 0,0.1 0,0.2 -0.1,0.2 l 0,-2.5 c 0.1,0 0.1,-0.1 0.1,-0.2"
             id="path54"
             inkscape:connector-curvature="0"
             style="fill:#1a476f" /><path
             class="st0"
             d="m 74.6,42.3 0,2.5 c 0,0.1 -0.1,0.2 -0.1,0.3 l 0,-2.5 c 0.1,-0.2 0.1,-0.2 0.1,-0.3"
             id="path56"
             inkscape:connector-curvature="0"
             style="fill:#1a476f" /><path
             class="st0"
             d="m 74.5,42.5 0,2.5 c -0.3,0.6 -1.1,1 -1.9,1 l 0,-2.5 c 0.8,0 1.6,-0.3 1.9,-1"
             id="path58"
             inkscape:connector-curvature="0"
             style="fill:#1a476f" /></g><path
           class="st0"
           d="m 74.7,41.8 0,2.5 c 0,1 -1,1.7 -2.1,1.7 l 0,-2.5 c 1.1,0 2.1,-0.6 2.1,-1.7 z"
           id="path60"
           inkscape:connector-curvature="0"
           style="fill:#1a476f" /><g
           id="g62"><path
             class="st0"
             d="m 65.2,43.7 0,2.5 c -1,-0.1 -1.8,-0.9 -1.8,-1.9 l 0,-2.5 c 0,1 0.8,1.8 1.8,1.9"
             id="path64"
             inkscape:connector-curvature="0"
             style="fill:#1a476f" /></g><path
           class="st0"
           d="m 65.2,43.7 0,2.5 c -1,-0.1 -1.8,-0.9 -1.8,-1.9 l 0,-2.5 c 0,1 0.8,1.8 1.8,1.9 z"
           id="path66"
           inkscape:connector-curvature="0"
           style="fill:#1a476f" /><g
           id="g68"><polygon
             class="st0"
             points="60.2,44.7 45.1,50 45.1,47.5 60.2,42.2 "
             id="polygon70"
             style="fill:#1a476f" /></g><g
           id="g72"><polygon
             class="st0"
             points="63,50.3 60.1,44.3 59.9,41.3 63,47.8 "
             id="polygon74"
             style="fill:#1a476f" /></g><g
           id="g76"><polygon
             class="st0"
             points="67.3,46 65.3,50.3 65.3,47.9 67.6,42.5 "
             id="polygon78"
             style="fill:#1a476f" /></g><g
           id="g80"><polygon
             class="st0"
             points="65.1,54.2 64.2,52.4 64,49.1 65.1,51.7 "
             id="polygon82"
             style="fill:#1a476f" /></g><g
           id="g84"><polygon
             class="st0"
             points="64.2,52.4 61.8,57.4 61.8,54.9 64.2,49.9 "
             id="polygon86"
             style="fill:#1a476f" /></g><g
           id="g88"><polygon
             class="st0"
             points="58.8,58.7 45.1,56 45.1,53.5 58.8,56.2 "
             id="polygon90"
             style="fill:#1a476f" /></g><g
           id="g92"><polygon
             class="st0"
             points="63.4,59.6 60.9,59.1 60.4,56.4 63.4,57.2 "
             id="polygon94"
             style="fill:#1a476f" /></g><g
           id="g96"><path
             class="st0"
             d="m 45.1,56.3 0,2.5 c 0,0.2 0,0.3 0,0.5 l 0,-2.5 c -0.1,-0.2 0,-0.3 0,-0.5"
             id="path98"
             inkscape:connector-curvature="0"
             style="fill:#1a476f" /><path
             class="st0"
             d="m 45,56.8 0,2.5 c 0,0.2 -0.1,0.3 -0.1,0.5 l 0,-2.5 C 45,57.1 45,57 45,56.8"
             id="path100"
             inkscape:connector-curvature="0"
             style="fill:#1a476f" /><path
             class="st0"
             d="m 44.9,57.3 0,2.5 c -0.1,0.2 -0.1,0.3 -0.2,0.5 l 0,-2.5 c 0.1,-0.2 0.2,-0.4 0.2,-0.5"
             id="path102"
             inkscape:connector-curvature="0"
             style="fill:#1a476f" /><path
             class="st0"
             d="m 44.7,57.7 0,2.5 c -0.2,0.4 -0.6,0.8 -1,1 l 0,-2.5 c 0.4,-0.2 0.8,-0.5 1,-1"
             id="path104"
             inkscape:connector-curvature="0"
             style="fill:#1a476f" /></g><path
           class="st0"
           d="m 45.1,56.3 0,2.5 c 0,1.1 -0.5,1.9 -1.4,2.4 l 0,-2.5 c 0.9,-0.4 1.4,-1.3 1.4,-2.4 z"
           id="path106"
           inkscape:connector-curvature="0"
           style="fill:#1a476f" /><g
           id="g108"><path
             class="st0"
             d="m 28.3,59 0,2.5 c -1.6,0 -3.1,-1.1 -3.1,-2.7 l 0,-2.5 c 0.1,1.6 1.6,2.7 3.1,2.7"
             id="path110"
             inkscape:connector-curvature="0"
             style="fill:#1a476f" /></g><path
           class="st0"
           d="m 28.3,59 0,2.5 c -1.6,0 -3.1,-1.1 -3.1,-2.7 l 0,-2.5 c 0.1,1.6 1.6,2.7 3.1,2.7 z"
           id="path112"
           inkscape:connector-curvature="0"
           style="fill:#1a476f" /><g
           id="g114"><polygon
             class="st0"
             points="41.6,61.5 28.3,61.5 27.8,58.5 41.6,59 "
             id="polygon116"
             style="fill:#1a476f" /></g><g
           id="g118"><polygon
             class="st0"
             points="72.6,64.3 65.3,64.3 64.8,61.6 73.2,61.7 "
             id="polygon120"
             style="fill:#1a476f" /></g><g
           id="g122"><path
             class="st0"
             d="m 74.7,60.9 0,2.5 c 0,0.1 0,0.1 0,0.2 l 0,-2.5 c 0,-0.1 0,-0.2 0,-0.2"
             id="path124"
             inkscape:connector-curvature="0"
             style="fill:#1a476f" /><path
             class="st0"
             d="m 74.7,61.1 0,2.5 c 0,0.1 0,0.1 0,0.2 l 0,-2.5 c 0,-0.1 0,-0.2 0,-0.2"
             id="path126"
             inkscape:connector-curvature="0"
             style="fill:#1a476f" /><path
             class="st0"
             d="m 74.7,61.2 0,2.5 c 0,0 0,0.1 -0.1,0.1 l 0.1,-2.6 c -0.1,0.1 0,0.1 0,0"
             id="path128"
             inkscape:connector-curvature="0"
             style="fill:#1a476f" /><path
             class="st0"
             d="m 74.6,61.3 0,2.5 c -0.2,0.4 -0.8,0.4 -1.4,0.4 -0.2,0 -0.4,0 -0.6,0 l 0,-2.5 c 0.2,0 0.4,0 0.6,0 0.7,0.1 1.2,0 1.4,-0.4"
             id="path130"
             inkscape:connector-curvature="0"
             style="fill:#1a476f" /></g><path
           class="st0"
           d="m 74.7,60.9 0,2.5 c 0,0.8 -0.7,0.9 -1.5,0.9 -0.2,0 -0.4,0 -0.6,0 l 0,-2.5 c 0.2,0 0.4,0 0.6,0 0.8,0 1.5,-0.1 1.5,-0.9 z"
           id="path132"
           inkscape:connector-curvature="0"
           style="fill:#1a476f" /><g
           id="g134"><path
             class="st0"
             d="m 65.3,61.8 0,2.5 c -0.3,0 -0.8,0.2 -1.1,0.2 -0.1,0 -0.2,0 -0.3,-0.1 l 0,-2.5 c 0.1,0.1 0.2,0.1 0.3,0.1 0.3,0 0.8,-0.2 1.1,-0.2"
             id="path136"
             inkscape:connector-curvature="0"
             style="fill:#1a476f" /></g><path
           class="st0"
           d="m 65.3,61.8 0,2.5 c -0.3,0 -0.8,0.2 -1.1,0.2 -0.1,0 -0.2,0 -0.3,-0.1 l 0,-2.5 c 0.1,0.1 0.2,0.1 0.3,0.1 0.3,0 0.8,-0.2 1.1,-0.2 z"
           id="path138"
           inkscape:connector-curvature="0"
           style="fill:#1a476f" /><g
           id="g140"><polygon
             class="st0"
             points="60.9,59.1 57.6,65.7 57.6,63.2 60.9,56.6 "
             id="polygon142"
             style="fill:#1a476f" /></g><g
           id="g144"><polygon
             class="st0"
             points="63.9,64.4 59.2,68.4 59.2,66 64.5,61.1 "
             id="polygon146"
             style="fill:#1a476f" /></g><g
           id="g148"><polygon
             class="st0"
             points="49.3,69 41.6,61.5 41.1,58.1 49.3,66.5 "
             id="polygon150"
             style="fill:#1a476f" /></g><g
           id="g152"><path
             class="st0"
             d="m 50.5,74.4 0,2.5 c -1.1,0 -1.3,-0.8 -1.3,-1.9 l 0,-2.5 c 0.1,1.1 0.3,1.9 1.3,1.9"
             id="path154"
             inkscape:connector-curvature="0"
             style="fill:#1a476f" /></g><path
           class="st0"
           d="m 50.5,74.4 0,2.5 c -1.1,0 -1.3,-0.8 -1.3,-1.9 l 0,-2.5 c 0.1,1.1 0.3,1.9 1.3,1.9 z"
           id="path156"
           inkscape:connector-curvature="0"
           style="fill:#1a476f" /><g
           id="g158"><path
             class="st0"
             d="m 59.2,72.5 0,2.5 c 0,0.2 0,0.4 0,0.6 l 0,-2.5 c 0,-0.1 0,-0.3 0,-0.6"
             id="path160"
             inkscape:connector-curvature="0"
             style="fill:#1a476f" /><path
             class="st0"
             d="m 59.1,73.2 0,2.5 c 0,0.1 0,0.3 -0.1,0.4 l 0,-2.5 c 0.1,-0.2 0.1,-0.3 0.1,-0.4"
             id="path162"
             inkscape:connector-curvature="0"
             style="fill:#1a476f" /><path
             class="st0"
             d="m 59.1,73.6 0,2.4 c 0,0.1 -0.1,0.2 -0.1,0.3 l 0,-2.5 c 0,0 0,-0.1 0.1,-0.2"
             id="path164"
             inkscape:connector-curvature="0"
             style="fill:#1a476f" /><path
             class="st0"
             d="m 58.9,73.8 0,2.5 c -0.2,0.3 -0.5,0.6 -1.1,0.6 l 0,-2.5 c 0.6,0 0.9,-0.2 1.1,-0.6"
             id="path166"
             inkscape:connector-curvature="0"
             style="fill:#1a476f" /></g><path
           class="st0"
           d="m 59.2,72.5 0,2.5 c 0,1 -0.3,1.9 -1.3,1.9 l 0,-2.5 c 1,0 1.3,-0.8 1.3,-1.9 z"
           id="path168"
           inkscape:connector-curvature="0"
           style="fill:#1a476f" /><g
           id="g170"><polygon
             class="st0"
             points="57.9,76.9 50.5,76.9 50.3,74.1 58.5,74 "
             id="polygon172"
             style="fill:#1a476f" /></g><g
           id="g174"><path
             class="st1"
             d="m 72.6,44.5 -2.2,0 0,8.5 2.2,0 c 1,0 2.1,0.6 2.1,1.6 l 0,7.3 c 0,0.8 -0.7,0.9 -1.5,0.9 -0.2,0 -0.4,0 -0.6,0 l -7.3,0 C 65,62.8 64.5,63 64.2,63 64.1,63 64,63 63.9,62.9 l -4.7,4.1 0,6.6 c 0,1 -0.3,1.9 -1.3,1.9 l -7.3,0 c -1.1,0 -1.3,-0.8 -1.3,-1.9 l 0,-6 -7.7,-7.6 -13.3,0 c -1.6,0 -3.1,-1.1 -3.1,-2.7 l 0,-14 c 0,-1.6 1.5,-3 3.1,-3 l 14.1,0 0.4,0.1 6.4,-7.1 c -0.2,-0.3 0,-0.6 0,-1 l 0,-7.3 c 0,-1 0.2,-3 1.3,-3 l 7.3,0 c 1,0 1.3,1.9 1.3,3 l 0,6.4 4.3,2.7 c 0.3,-0.4 1.2,-0.9 1.8,-0.9 l 7.3,0 c 1,0 2.1,1.2 2.1,2.2 l 0,7.3 c 0.1,1.2 -0.9,1.8 -2,1.8 z M 63,48.8 60.2,43.2 45,48.5 45,52.6 59.6,55.5 63,48.8 M 50.6,33.3 44.3,40.8 c 0.5,0.5 0.7,1.7 0.7,2.5 l 0,3.2 14.3,-5.5 -3.5,-7.7 -5.2,0 m -0.1,30.9 4.9,0 3.4,-7 -13.8,-2.7 0,2.8 c 0,1.1 -0.5,1.9 -1.4,2.4 l 5.3,5.3 c 0.4,-0.4 1,-0.8 1.6,-0.8 m 12.9,-2.6 0,-3.5 -2.5,-0.6 -3.3,6.6 0.3,0 c 0.5,0 1,0.3 1.4,0.7 l 4.1,-3.2 m -4,-28.1 c -0.3,0.4 -0.8,0.7 -1.4,0.7 l 3.3,6.6 2.1,-0.7 0,-3.8 -4,-2.8 m 8.3,19.5 0,-8.4 -0.4,0 -2,4.3 1.9,4.1 0.5,0 m -4.3,1.6 c 0,-1 0.7,-1.8 1.7,-1.9 l -0.9,-1.8 -2.4,5 1.6,0.3 0,-1.6 m 0.8,-7.9 1,-2 c -1,-0.1 -1.8,-0.9 -1.8,-1.9 l 0,-0.7 -1.2,0.4 2,4.2"
             id="path176"
             inkscape:connector-curvature="0"
             style="fill:#2d72b8" /></g></g></g><path
       class="st2"
       d="m 55.5,53.1 c 0,2.2 -1.8,4 -4,4 l -18,0 c -2.2,0 -4,-1.8 -4,-4 l 0,-6 c 0,-2.2 1.8,-4 4,-4 l 18,0 c 2.2,0 4,1.8 4,4 l 0,6 z"
       id="path178"
       inkscape:connector-curvature="0"
       style="fill:#ffffff;stroke:#19486f;stroke-miterlimit:10" /><text
       y="54.008701"
       x="30.953753"
       class="st1 st3 st4"
       id="text180"
       style="font-size:9.98360348px;font-family:HelveticaNeueLTStd-BdCn;fill:#2d72b8">DW1</text>
</g><g
     id="nyt_x5F_exporter_x5F_info"
     class="st5" /></svg>

<?xml version="1.0" encoding="utf-8"?>
<!-- Generator: Adobe Illustrator 19.1.0, SVG Export Plug-In . SVG Version: 6.00 Build 0)  -->
<svg version="1.1" id="Layer_1" xmlns="http://www.w3.org/2000/svg" xmlns:xlink="http://www.w3.org/1999/xlink" x="0px" y="0px"
	 viewBox="0 0 100 100" style="enable-background:new 0 0 100 100;" xml:space="preserve">
<style type="text/css">
	.st0{fill:#1A476F;}
	.st1{fill:#2D72B8;}
	.st2{fill:#FFFFFF;stroke:#19486F;stroke-miterlimit:10;}
	.st3{font-family:'HelveticaNeueLTStd-BdCn';}
	.st4{font-size:11px;}
	.st5{display:none;}
</style>
<g id="Layer_1_1_">
	<g>
		<g>
			<g>
				<path class="st0" d="M49.2,32.3v2.5c-0.1-0.1-0.1-0.2-0.1-0.3V32C49.2,32.2,49.2,32.2,49.2,32.3"/>
			</g>
			<path class="st0" d="M49.2,34.6v-2.5c0,0.1,0,0.2,0.1,0.3v2.5C49.2,34.7,49.2,34.6,49.2,34.6z"/>
			<g>
				<polygon class="st0" points="56.1,32.1 55.9,34.8 50.6,34.8 50.4,32.2 				"/>
			</g>
			<g>
				<path class="st0" d="M59.4,32.5V35c-0.3,0.4-0.8,0.7-1.4,0.7v-2.5C58.6,33.2,59.1,32.9,59.4,32.5"/>
			</g>
			<path class="st0" d="M59.4,32.5V35c-0.3,0.4-0.8,0.7-1.4,0.7v-2.5C58.6,33.2,59.1,32.9,59.4,32.5z"/>
			<g>
				<polygon class="st0" points="63.4,35.4 63.4,37.9 59.4,35 58.6,31.8 				"/>
			</g>
			<g>
				<polygon class="st0" points="50.6,32.3 50.6,34.8 44.4,42.3 44.4,39.8 				"/>
			</g>
			<g>
				<polygon class="st0" points="59.4,40.1 59.4,42.5 55.9,34.8 55.9,32.3 				"/>
			</g>
			<g>
				<polygon class="st0" points="64.3,40.6 63.4,43.6 62.2,44 62.2,41.6 				"/>
			</g>
			<g>
				<polygon class="st0" points="73.1,43.3 72.6,46 70.5,46 70.5,43.5 				"/>
			</g>
			<g>
				<rect x="67.3" y="43.5" class="st0" width="0.4" height="2.5"/>
			</g>
			<g>
				<path class="st0" d="M74.7,41.8v2.5c0,0.1,0,0.1,0,0.2V42C74.7,42,74.7,41.9,74.7,41.8"/>
				<path class="st0" d="M74.7,42v2.5c0,0.1,0,0.2-0.1,0.2v-2.5C74.7,42.2,74.7,42.1,74.7,42"/>
				<path class="st0" d="M74.6,42.3v2.5c0,0.1-0.1,0.2-0.1,0.3v-2.5C74.6,42.4,74.6,42.4,74.6,42.3"/>
				<path class="st0" d="M74.5,42.5V45c-0.3,0.6-1.1,1-1.9,1v-2.5C73.4,43.5,74.2,43.2,74.5,42.5"/>
			</g>
			<path class="st0" d="M74.7,41.8v2.5c0,1-1,1.7-2.1,1.7v-2.5C73.7,43.5,74.7,42.9,74.7,41.8z"/>
			<g>
				<path class="st0" d="M65.2,43.7v2.5c-1-0.1-1.8-0.9-1.8-1.9v-2.5C63.4,42.8,64.2,43.6,65.2,43.7"/>
			</g>
			<path class="st0" d="M65.2,43.7v2.5c-1-0.1-1.8-0.9-1.8-1.9v-2.5C63.4,42.8,64.2,43.6,65.2,43.7z"/>
			<g>
				<polygon class="st0" points="60.2,42.2 60.2,44.7 45.1,50 45.1,47.5 				"/>
			</g>
			<g>
				<polygon class="st0" points="63,47.8 63,50.3 60.1,44.3 59.9,41.3 				"/>
			</g>
			<g>
				<polygon class="st0" points="67.6,42.5 67.3,46 65.3,50.3 65.3,47.9 				"/>
			</g>
			<g>
				<polygon class="st0" points="65.1,51.7 65.1,54.2 64.2,52.4 64,49.1 				"/>
			</g>
			<g>
				<polygon class="st0" points="64.2,49.9 64.2,52.4 61.8,57.4 61.8,54.9 				"/>
			</g>
			<g>
				<polygon class="st0" points="58.8,56.2 58.8,58.7 45.1,56 45.1,53.5 				"/>
			</g>
			<g>
				<polygon class="st0" points="63.4,57.2 63.4,59.6 60.9,59.1 60.4,56.4 				"/>
			</g>
			<g>
				<path class="st0" d="M45.1,56.3v2.5c0,0.2,0,0.3,0,0.5v-2.5C45,56.6,45.1,56.5,45.1,56.3"/>
				<path class="st0" d="M45,56.8v2.5c0,0.2-0.1,0.3-0.1,0.5v-2.5C45,57.1,45,57,45,56.8"/>
				<path class="st0" d="M44.9,57.3v2.5c-0.1,0.2-0.1,0.3-0.2,0.5v-2.5C44.8,57.6,44.9,57.4,44.9,57.3"/>
				<path class="st0" d="M44.7,57.7v2.5c-0.2,0.4-0.6,0.8-1,1v-2.5C44.1,58.5,44.5,58.2,44.7,57.7"/>
			</g>
			<path class="st0" d="M45.1,56.3v2.5c0,1.1-0.5,1.9-1.4,2.4v-2.5C44.6,58.3,45.1,57.4,45.1,56.3z"/>
			<g>
				<path class="st0" d="M28.3,59v2.5c-1.6,0-3.1-1.1-3.1-2.7v-2.5C25.3,57.9,26.8,59,28.3,59"/>
			</g>
			<path class="st0" d="M28.3,59v2.5c-1.6,0-3.1-1.1-3.1-2.7v-2.5C25.3,57.9,26.8,59,28.3,59z"/>
			<g>
				<polygon class="st0" points="41.6,59 41.6,61.5 28.3,61.5 27.8,58.5 				"/>
			</g>
			<g>
				<polygon class="st0" points="73.2,61.7 72.6,64.3 65.3,64.3 64.8,61.6 				"/>
			</g>
			<g>
				<path class="st0" d="M74.7,60.9v2.5c0,0.1,0,0.1,0,0.2v-2.5C74.7,61,74.7,60.9,74.7,60.9"/>
				<path class="st0" d="M74.7,61.1v2.5c0,0.1,0,0.1,0,0.2v-2.5C74.7,61.2,74.7,61.1,74.7,61.1"/>
				<path class="st0" d="M74.7,61.2v2.5c0,0,0,0.1-0.1,0.1L74.7,61.2C74.6,61.3,74.7,61.3,74.7,61.2"/>
				<path class="st0" d="M74.6,61.3v2.5c-0.2,0.4-0.8,0.4-1.4,0.4c-0.2,0-0.4,0-0.6,0v-2.5c0.2,0,0.4,0,0.6,0
					C73.9,61.8,74.4,61.7,74.6,61.3"/>
			</g>
			<path class="st0" d="M74.7,60.9v2.5c0,0.8-0.7,0.9-1.5,0.9c-0.2,0-0.4,0-0.6,0v-2.5c0.2,0,0.4,0,0.6,0
				C74,61.8,74.7,61.7,74.7,60.9z"/>
			<g>
				<path class="st0" d="M65.3,61.8v2.5c-0.3,0-0.8,0.2-1.1,0.2c-0.1,0-0.2,0-0.3-0.1v-2.5C64,62,64.1,62,64.2,62
					C64.5,62,65,61.8,65.3,61.8"/>
			</g>
			<path class="st0" d="M65.3,61.8v2.5c-0.3,0-0.8,0.2-1.1,0.2c-0.1,0-0.2,0-0.3-0.1v-2.5C64,62,64.1,62,64.2,62
				C64.5,62,65,61.8,65.3,61.8z"/>
			<g>
				<polygon class="st0" points="60.9,56.6 60.9,59.1 57.6,65.7 57.6,63.2 				"/>
			</g>
			<g>
				<polygon class="st0" points="64.5,61.1 63.9,64.4 59.2,68.4 59.2,66 				"/>
			</g>
			<g>
				<polygon class="st0" points="49.3,66.5 49.3,69 41.6,61.5 41.1,58.1 				"/>
			</g>
			<g>
				<path class="st0" d="M50.5,74.4v2.5c-1.1,0-1.3-0.8-1.3-1.9v-2.5C49.3,73.6,49.5,74.4,50.5,74.4"/>
			</g>
			<path class="st0" d="M50.5,74.4v2.5c-1.1,0-1.3-0.8-1.3-1.9v-2.5C49.3,73.6,49.5,74.4,50.5,74.4z"/>
			<g>
				<path class="st0" d="M59.2,72.5V75c0,0.2,0,0.4,0,0.6v-2.5C59.2,73,59.2,72.8,59.2,72.5"/>
				<path class="st0" d="M59.1,73.2v2.5c0,0.1,0,0.3-0.1,0.4v-2.5C59.1,73.4,59.1,73.3,59.1,73.2"/>
				<path class="st0" d="M59.1,73.6V76c0,0.1-0.1,0.2-0.1,0.3v-2.5C59,73.8,59,73.7,59.1,73.6"/>
				<path class="st0" d="M58.9,73.8v2.5c-0.2,0.3-0.5,0.6-1.1,0.6v-2.5C58.4,74.4,58.7,74.2,58.9,73.8"/>
			</g>
			<path class="st0" d="M59.2,72.5V75c0,1-0.3,1.9-1.3,1.9v-2.5C58.9,74.4,59.2,73.6,59.2,72.5z"/>
			<g>
				<polygon class="st0" points="58.5,74 57.9,76.9 50.5,76.9 50.3,74.1 				"/>
			</g>
			<g>
				<path class="st1" d="M72.6,44.5h-2.2V53h2.2c1,0,2.1,0.6,2.1,1.6v7.3c0,0.8-0.7,0.9-1.5,0.9c-0.2,0-0.4,0-0.6,0h-7.3
					c-0.3,0-0.8,0.2-1.1,0.2c-0.1,0-0.2,0-0.3-0.1L59.2,67v6.6c0,1-0.3,1.9-1.3,1.9h-7.3c-1.1,0-1.3-0.8-1.3-1.9v-6L41.6,60H28.3
					c-1.6,0-3.1-1.1-3.1-2.7v-14c0-1.6,1.5-3,3.1-3h14.1l0.4,0.1l6.4-7.1c-0.2-0.3,0-0.6,0-1V25c0-1,0.2-3,1.3-3h7.3
					c1,0,1.3,1.9,1.3,3v6.4l4.3,2.7c0.3-0.4,1.2-0.9,1.8-0.9h7.3c1,0,2.1,1.2,2.1,2.2v7.3C74.7,43.9,73.7,44.5,72.6,44.5z M63,48.8
					l-2.8-5.6L45,48.5v4.1l14.6,2.9L63,48.8 M50.6,33.3l-6.3,7.5c0.5,0.5,0.7,1.7,0.7,2.5v3.2L59.3,41l-3.5-7.7H50.6 M50.5,64.2h4.9
					l3.4-7L45,54.5v2.8c0,1.1-0.5,1.9-1.4,2.4l5.3,5.3C49.3,64.6,49.9,64.2,50.5,64.2 M63.4,61.6v-3.5l-2.5-0.6l-3.3,6.6h0.3
					c0.5,0,1,0.3,1.4,0.7L63.4,61.6 M59.4,33.5c-0.3,0.4-0.8,0.7-1.4,0.7l3.3,6.6l2.1-0.7v-3.8L59.4,33.5 M67.7,53v-8.4h-0.4l-2,4.3
					l1.9,4.1L67.7,53 M63.4,54.6c0-1,0.7-1.8,1.7-1.9l-0.9-1.8l-2.4,5l1.6,0.3L63.4,54.6 M64.2,46.7l1-2c-1-0.1-1.8-0.9-1.8-1.9
					v-0.7l-1.2,0.4L64.2,46.7"/>
			</g>
		</g>
	</g>
	<path class="st2" d="M55.5,53.1c0,2.2-1.8,4-4,4h-18c-2.2,0-4-1.8-4-4v-6c0-2.2,1.8-4,4-4h18c2.2,0,4,1.8,4,4V53.1z"/>
	<text transform="matrix(1 0 0 1 32.854 54.0087)" class="st1 st3 st4">DW1</text>
</g>
<g id="nyt_x5F_exporter_x5F_info" class="st5">
</g>
</svg>
